X:2853
T:Wearmouth Lads
T:Col. Robertson of Strewan's Welcome Home
C:Niel Gow
O:Scotland
R:Jig
Z:C.G.P
F:http://abc.musicaviva.com/tunes/gow-niel/gow-wearmouth-lads.abc
%Posted at abcusers Jan 2nd 2001 by Johnny Adams.
M:6/8
L:1/8
K:D
D2dF2A|E2cC2E|D2dF2A|DFA gfe|D2dF2A|
E2cC2E|agf gfe|dAFD2z::g|fdg faf|ece gfe|fdg fag|
fda bg|fdg faf|ece gfe|agf gfe|dAFD2:|
W:
W:
W:  From Musica Viva - http://www.musicaviva.com
W:  the Internet center for free sheet music downloads.
